src/assets/filled/Ranking1.svg

<svg width="24" height="24" viewBox="0 0 24 24"  xmlns="http://www.w3.org/2000/svg">
<path d="M6.67 14H4C2.9 14 2 14.9 2 16V21C2 21.55 2.45 22 3 22H6.67C7.22 22 7.67 21.55 7.67 21V15C7.67 14.45 7.22 14 6.67 14Z" />
<path d="M13.3299 10H10.6599C9.55991 10 8.65991 10.9 8.65991 12V21C8.65991 21.55 9.10991 22 9.65991 22H14.3299C14.8799 22 15.3299 21.55 15.3299 21V12C15.3299 10.9 14.4399 10 13.3299 10Z" />
<path d="M20.0001 17H17.3301C16.7801 17 16.3301 17.45 16.3301 18V21C16.3301 21.55 16.7801 22 17.3301 22H21.0001C21.5501 22 22.0001 21.55 22.0001 21V19C22.0001 17.9 21.1001 17 20.0001 17Z" />
<path d="M15.0099 4.85047C15.3199 4.54047 15.4399 4.17047 15.3399 3.85047C15.2399 3.53047 14.9299 3.30047 14.4899 3.23047L13.5299 3.07047C13.4899 3.07047 13.3999 3.00047 13.3799 2.96047L12.8499 1.90047C12.4499 1.09047 11.5399 1.09047 11.1399 1.90047L10.6099 2.96047C10.5999 3.00047 10.5099 3.07047 10.4699 3.07047L9.50994 3.23047C9.06994 3.30047 8.76994 3.53047 8.65994 3.85047C8.55994 4.17047 8.67994 4.54047 8.98994 4.85047L9.72994 5.60047C9.76994 5.63047 9.79994 5.75047 9.78994 5.79047L9.57994 6.71047C9.41994 7.40047 9.67994 7.71047 9.84994 7.83047C10.0199 7.95047 10.3899 8.11047 10.9999 7.75047L11.8999 7.22047C11.9399 7.19047 12.0699 7.19047 12.1099 7.22047L12.9999 7.75047C13.2799 7.92047 13.5099 7.97047 13.6899 7.97047C13.8999 7.97047 14.0499 7.89047 14.1399 7.83047C14.3099 7.71047 14.5699 7.40047 14.4099 6.71047L14.1999 5.79047C14.1899 5.74047 14.2199 5.63047 14.2599 5.60047L15.0099 4.85047Z" />
</svg>

<?xml version="1.0" encoding="UTF-8"?>
<svg width="24" height="24" viewBox="0 0 24 24" xmlns="http://www.w3.org/2000/svg">
 <path d="m6.67 14h-2.67c-1.1 0-2 0.9-2 2v5c0 0.55 0.45 1 1 1h3.67c0.55 0 1-0.45 1-1v-6c0-0.55-0.45-1-1-1z"/>
 <path d="m13.33 10h-2.67c-1.1 0-2 0.9-2 2v9c0 0.55 0.45 1 1 1h4.67c0.55 0 1-0.45 1-1v-9c0-1.1-0.89-2-2-2z"/>
 <path d="m20 17h-2.67c-0.55 0-1 0.45-1 1v3c0 0.55 0.45 1 1 1h3.67c0.55 0 1-0.45 1-1v-2c0-1.1-0.9-2-2-2z"/>
 <path d="m15.01 4.8505c0.31-0.31 0.43-0.68 0.33-1s-0.41-0.55-0.85-0.62l-0.96-0.16c-0.04 0-0.13-0.07-0.15-0.11l-0.53-1.06c-0.4-0.81-1.31-0.81-1.71 0l-0.53 1.06c-0.01 0.04-0.1 0.11-0.14 0.11l-0.95996 0.16c-0.44 0.07-0.74 0.3-0.85 0.62-0.1 0.32 0.02 0.69 0.33 1l0.74 0.75c0.04 0.03 0.07 0.15 0.06 0.19l-0.21 0.92c-0.16 0.69 0.1 1 0.27 1.12 0.16996 0.12 0.53996 0.28 1.15-0.08l0.9-0.53c0.04-0.03 0.17-0.03 0.21 0l0.89 0.53c0.28 0.17 0.51 0.22 0.69 0.22 0.21 0 0.36-0.08 0.45-0.14 0.17-0.12 0.43-0.43 0.27-1.12l-0.21-0.92c-0.01-0.05 0.02-0.16 0.06-0.19l0.75-0.75z"/>
</svg>
